X:75
T: Chapel Bell [The]
S: "First Collection of Traditional Irish Music" (M.Mulvihill)
C: F.McCollum
Z: B.Black
L: 1/8
M: 6/8
R: jig
K: Dmix
G|ADD DEG|Add c2 e|dcA AGE|c2 A GED|
ADD DEG|Add c2 e|dcA AGE|EDD D2 :|
G|Adc ded|cAB c2 e|dcA AGE|c2 e dcA|
Adc dea|ged e2 c|dcA AGE|EDD D2 :|
